src/assets/illustrations/flower.svg

<svg width="40" height="40" viewBox="0 0 40 40" fill="none" xmlns="http://www.w3.org/2000/svg">
<path d="M13.5269 16.2263C11.0653 13.7611 6.5869 8.52047 8.91657 4.52105C9.54137 3.44845 10.6776 3.02734 11.8455 3.02734C15.0308 3.02734 15.3186 4.76666 16.2389 7.39983C16.3558 7.73436 17.4674 11.86 17.9203 11.0662C18.7009 9.69818 18.517 8.095 19.1407 6.72087C19.8734 5.10661 23.7781 2.12855 23.7781 5.47159C23.7781 7.5874 23.4971 8.66263 22.8018 10.5774C22.5137 11.3708 21.1833 13.2537 22.8289 12.5328C23.9214 12.0541 35.1974 8.39637 34.4904 11.5822C34.2561 12.638 33.2326 14.2225 32.2937 14.7597C31.5352 15.1938 29.5583 16.2263 30.3682 16.2263C32.9707 16.2263 38.6319 23.4643 34.7887 24.5639C32.8731 25.112 30.3749 26.4716 28.5512 24.6454C27.6754 23.7683 30.1321 23.7683 29.2563 24.6454C27.8873 26.0163 25.6425 26.4164 24.1578 27.85C22.5541 29.3987 16.944 35.1933 16.944 29.8054C16.944 28.8433 18.5343 25.9946 19.7644 27.5785C20.44 28.4483 15.4287 28.4593 15.0998 28.4475C12.1336 28.3414 7.48079 26.9529 7.66907 23.559C7.88838 19.6058 13.9678 24.8288 9.02505 23.1788C6.10813 22.2051 2.66749 18.1505 4.36047 14.7597C5.8963 11.6837 9.29777 15.0864 10.598 15.7374" stroke="#544339" stroke-width="1.125" stroke-linecap="round"/>
<path d="M22.3867 17.6367C21.3069 17.6367 20.5645 18.3311 20.5645 19.459C20.5645 20.1255 21.3425 20.0664 21.858 20.0664C22.5986 20.0664 23.1966 20.1066 23.1966 19.1778C23.1966 18.433 23.3565 17.8392 22.3867 17.8392" stroke="#544339" stroke-width="1.125" stroke-linecap="round"/>
<path d="M26.9414 26.748C27.3818 27.949 28.0871 29.0641 28.6062 30.2351C29.2459 31.6782 29.5735 32.9527 29.5735 34.5263C29.5735 35.2982 29.3594 36.5737 28.5612 36.9729" stroke="#544339" stroke-width="1.125" stroke-linecap="round"/>
</svg>

<svg width="40" height="40" fill="none" xmlns="http://www.w3.org/2000/svg"><path d="M13.527 16.226c-2.462-2.465-6.94-7.706-4.61-11.705.624-1.073 1.76-1.494 2.928-1.494 3.186 0 3.474 1.74 4.394 4.373.117.334 1.228 4.46 1.681 3.666.78-1.368.597-2.971 1.22-4.345.733-1.614 4.638-4.592 4.638-1.25 0 2.116-.28 3.192-.976 5.106-.288.794-1.619 2.677.027 1.956 1.092-.479 12.368-4.137 11.661-.95-.234 1.055-1.257 2.64-2.196 3.177-.759.434-2.736 1.466-1.926 1.466 2.603 0 8.264 7.238 4.42 8.338-1.915.548-4.413 1.908-6.237.081-.876-.877 1.581-.877.705 0-1.369 1.371-3.614 1.771-5.098 3.205-1.604 1.549-7.214 7.343-7.214 1.955 0-.962 1.59-3.81 2.82-2.227.676.87-4.335.881-4.664.87-2.966-.107-7.62-1.495-7.43-4.889.218-3.953 6.298 1.27 1.355-.38-2.917-.974-6.358-5.028-4.665-8.42 1.536-3.075 4.938.327 6.238.978" stroke="#544339" stroke-width="1.125" stroke-linecap="round"/><path d="M22.387 17.637c-1.08 0-1.823.694-1.823 1.822 0 .666.779.607 1.294.607.74 0 1.339.04 1.339-.888 0-.745.16-1.339-.81-1.339m4.554 8.909c.44 1.201 1.146 2.316 1.665 3.487.64 1.443.967 2.718.967 4.291 0 .772-.214 2.048-1.012 2.447" stroke="#544339" stroke-width="1.125" stroke-linecap="round"/></svg>
